X:1
T:Title
%%score { 1 | 2 }
L:1/8
Q:1/4=100
M:6/8
K:G
V:1 treble nm="Grand Piano"
V:2 bass 
V:1
 Bcd G2 [^DF] | E2 G D3 | GG[FA] B2 d | c2 B [FA]3 | Bcd G2 [^DF] | E2 G D3 | %6
w: Daniel~Hahn * * * *||||||
 GG[DFA] [DGB]2 [EGc] | [DGB]2 [CFA] [B,G]3 |] %8
w: ||
V:2
 [G,D][G,A,D][G,B,D] [E,B,E]2 [B,,A,] | [C,G,]2 [E,G,C] [G,B,]3 | %2
 [E,B,E][E,B,E][D,D][K:treble] [G,DG]2 [B,DG] | [A,DF]2 [G,DG][K:bass] [D,D]3 | %4
 [G,D][G,A,D][G,B,D] [E,B,E]2 [B,,A,] | [C,G,]2 [E,G,C] [G,B,]3 | [E,B,E][E,B,E]D, G,2 C, | %7
 D,2 D, G,3 |] %8

